X: 3
T: The Gladstone
R: reel
M: 4/4
L: 1/8
K: Amaj
ed | c3d efga | A2cA BGE2 | c3d efga | edcB Aced |cBcd efga | A2cA BGE2 | cBcd efga | edcB A2 :||: ce | a2c'a g2bg | f2af edce | d2fd c2ec | BABc defg |1 a2c'a g2bg | f2af edce | defd c2ec | BAGB | A2 :|2 aA (3AAA cAce | a2ga fece | defd c2ec | BABc A2 ||


Tune 1744	Setting 1744

